X:266
T: UEB IMMER TREU UND REDLICHKEIT
N: B0745
O: Europa, Mitteleuropa, Deutschland
R: Moral - Lied, religioes
M: 4/4
L: 1/8
K: G
D2 | G2G2A2A2 | B3AG2
D2 | c2c2BABc | A4z2
D2 | c2c2A2A2 | d3ded
cB | A2A2F2F2 | G4z2

@@@ Tune index: 2484
